src/assets/media/home/women-laptop.svg

<svg width="521" height="471" viewBox="0 0 521 471" fill="none" xmlns="http://www.w3.org/2000/svg">
<path d="M145.384 245.642C134.081 243.041 127.198 231.028 130.01 218.811C132.821 206.593 144.263 198.798 155.566 201.399C166.868 204 173.751 216.013 170.94 228.23C168.128 240.448 156.686 248.243 145.384 245.642Z" fill="#492B25"/>
<path d="M226.779 229.029C226.779 229.029 225.779 237.029 223.929 248.379C220.929 267.049 195.679 270.779 187.399 253.769C182.899 244.509 179.049 235.619 177.209 229.029C177.209 229.029 173.039 221.469 163.909 240.769C154.779 260.069 150.909 415.549 150.909 415.549C150.909 415.549 148.799 446.989 148.799 468.149C176.199 467.209 255.979 467.729 256.039 467.729L246.909 258.729C246.909 258.729 238.519 225.119 226.779 229.029Z" fill="white"/>
<path d="M226.429 231.629C239.429 233.179 237.429 261.119 237.429 266.859C237.429 272.599 239.779 467.729 239.779 467.729H309.959L339.959 362.079C339.959 362.079 323.259 314.599 311.519 290.859C299.779 267.119 277.609 260.079 272.129 259.029C266.649 257.979 246.129 245.029 241.129 235.289C236.129 225.549 226.779 225.639 226.779 225.639L226.429 231.629Z" fill="#2790D6"/>
<path d="M182.779 421.359L202.339 425.859L250.089 411.379L302.559 444.459C302.559 444.459 309.559 452.669 294.349 452.669C294.349 452.669 297.279 457.759 289.259 457.759C281.239 457.759 278.599 455.119 278.599 455.119C278.599 455.119 273.999 461.669 261.479 455.119C261.479 455.119 258.739 460.689 248.369 456.389C242.191 453.835 236.179 450.896 230.369 447.589C230.369 447.589 222.149 462.459 204.539 467.739H176.169L182.779 421.359Z" fill="#E8AA80"/>
<path d="M177.998 225.639C177.998 225.639 170.168 222.769 165.478 229.809C160.788 236.849 145.648 248.339 143.038 250.949C143.038 250.949 82.5184 264.249 76.7784 267.379C71.0384 270.509 61.3884 288.509 58.7784 293.989C56.1684 299.469 21.5184 351.059 10.5184 435.639C6.34843 467.729 28.5184 470.519 33.9984 470.079C39.4784 469.639 179.878 467.609 180.888 467.729C183.348 444.899 187.648 411.379 187.648 411.379L165.478 406.159C165.478 406.159 169.388 245.729 169.388 242.079C169.388 238.429 172.518 229.079 177.208 229.079L177.998 225.639Z" fill="#2790D6"/>
<path d="M298.259 458.339H243.609C241.129 458.339 235.779 460.949 235.129 467.729H296.779L298.259 458.339Z" fill="#6B6661"/>
<path d="M333.669 355.028L289.849 467.728H478.649L520.909 355.028H333.669Z" fill="#9E9B97"/>
<path d="M402.981 427.888C398.603 424.82 399.03 416.66 403.934 409.664C408.838 402.668 416.363 399.484 420.74 402.553C425.118 405.622 424.691 413.781 419.787 420.777C414.883 427.773 407.358 430.957 402.981 427.888Z" fill="#B7AEA3"/>
<path d="M184.259 212.858C184.259 212.858 141.479 212.338 139.909 161.208C138.339 110.078 184.259 93.6382 184.259 95.9882C184.259 95.9882 194.949 125.728 219.479 135.898L184.259 212.858Z" fill="#422722"/>
<path d="M246.609 163.029C246.609 163.029 270.079 145.549 255.999 113.729C241.919 81.9086 190.259 86.5986 184.259 95.9886C184.259 95.9886 196.059 138.309 247.389 145.289L246.609 163.029Z" fill="#492B25"/>
<path d="M226.429 218.859C226.429 218.859 242.429 218.859 249.739 200.599C257.049 182.339 248.429 145.029 248.429 145.029C248.429 145.029 224.169 143.209 205.909 127.549C205.909 127.549 192.079 144.279 190.519 175.959C190.519 175.959 187.649 156.509 173.819 156.509C159.989 156.509 157.649 188.339 182.689 183.379C182.689 183.379 177.209 225.379 177.209 229.029C177.209 229.029 179.469 238.119 187.469 255.109C195.569 272.319 220.969 268.779 224.139 250.019C225.699 240.839 226.779 232.129 226.779 225.639L226.429 218.859Z" fill="#E8AA80"/>
<path d="M229.259 166.548C229.259 166.548 221.169 158.988 215.429 158.988C209.689 158.988 202.779 162.118 201.209 163.678C201.209 163.678 207.029 172.678 215.209 172.678C223.389 172.678 229.259 166.548 229.259 166.548Z" fill="white"/>
<mask id="mask0_4107_1417" style="mask-type:alpha" maskUnits="userSpaceOnUse" x="201" y="158" width="29" height="15">
<path d="M229.259 166.548C229.259 166.548 221.169 158.988 215.429 158.988C209.689 158.988 202.779 162.118 201.209 163.678C201.209 163.678 207.029 172.678 215.209 172.678C223.389 172.678 229.259 166.548 229.259 166.548Z" fill="white"/>
</mask>
<g mask="url(#mask0_4107_1417)">
<path d="M226.429 162.378C226.429 162.378 211.909 154.948 208.779 171.768C208.779 171.768 214.129 179.078 231.079 166.948C231.079 166.948 227.779 162.378 226.429 162.378Z" fill="#281313"/>
</g>
<path d="M251.199 160.819C250.849 160.794 250.498 160.794 250.149 160.819C244.429 161.319 237.819 165.039 236.399 166.739C236.399 166.739 242.979 175.189 251.149 174.479C251.659 174.429 252.019 174.389 252.499 174.299C252.049 167.149 251.839 166.149 251.199 160.819Z" fill="white"/>
<mask id="mask1_4107_1417" style="mask-type:alpha" maskUnits="userSpaceOnUse" x="236" y="160" width="17" height="15">
<path d="M251.199 160.819C250.849 160.794 250.498 160.794 250.149 160.819C244.429 161.319 237.819 165.039 236.399 166.739C236.399 166.739 242.979 175.189 251.149 174.479C251.659 174.429 252.019 174.389 252.499 174.299C252.049 167.149 251.839 166.149 251.199 160.819Z" fill="white"/>
</mask>
<g mask="url(#mask1_4107_1417)">
<path d="M251.428 162.879C248.218 164.109 243.068 166.519 242.428 173.469C242.428 173.469 247.308 176.829 252.918 175.469C252.588 171.059 252.088 168.699 251.428 162.879Z" fill="#281313"/>
</g>
<path d="M177.608 172.679C176.167 169.688 173.752 167.276 170.758 165.839" stroke="#512E27" stroke-width="0.75" stroke-miterlimit="10"/>
<path d="M232.909 172.679C232.909 172.679 237.999 175.159 239.689 176.859C241.379 178.559 239.279 180.189 238.259 180.379C235.779 180.839 227.469 180.379 227.469 180.379" stroke="#512E27" stroke-width="0.75" stroke-miterlimit="10"/>
<path d="M241.549 155.339C244.22 157.3 247.519 158.211 250.819 157.899" stroke="#512E27" stroke-miterlimit="10"/>
<path d="M218.648 144.979C214.389 144.114 209.959 144.931 206.288 147.259" stroke="#512E27" stroke-miterlimit="10"/>
<path d="M195.149 201.249C195.149 201.249 199.999 219.839 226.429 218.859C226.429 218.859 226.779 222.859 226.779 226.679C216.779 226.879 198.479 221.269 195.149 201.249Z" fill="#7F4E41"/>
<path d="M124.258 324.769L108.348 397.769L75.7384 393.339C75.7384 393.339 165.208 405.079 187.648 411.339" stroke="black" stroke-width="0.75" stroke-miterlimit="10"/>
<path d="M279.079 335.459C279.079 335.459 290.379 357.299 268.689 423.069" stroke="black" stroke-width="0.75" stroke-miterlimit="10"/>
<path d="M258.239 425.729L294.349 452.659C294.349 452.659 296.349 456.759 291.689 457.549" stroke="#512E27" stroke-width="0.75" stroke-miterlimit="10"/>
<path d="M241.129 425.729C241.129 425.729 274.239 449.289 276.509 451.549C278.779 453.809 279.509 455.189 274.789 457.549" stroke="#512E27" stroke-width="0.75" stroke-miterlimit="10"/>
<path d="M226.429 427.809C226.429 427.809 258.739 450.899 260.949 453.119C263.159 455.339 260.059 458.219 256.359 457.959C252.469 457.689 250.129 457.719 223.519 443.859C223.519 443.859 217.849 455.969 196.129 457.549" stroke="#512E27" stroke-width="0.75" stroke-miterlimit="10"/>
<path d="M199.009 89.7783C199.009 89.7783 210.379 117.318 260.449 131.438" stroke="black" stroke-width="0.75" stroke-miterlimit="10"/>
<path d="M187.648 104.249C187.648 104.249 143.558 125.879 141.078 167.669" stroke="black" stroke-width="0.75" stroke-miterlimit="10"/>
<path d="M199.009 120.528C199.009 120.528 148.639 147.248 162.139 205.878" stroke="black" stroke-width="0.75" stroke-miterlimit="10"/>
<path d="M184.258 95.9883C184.258 95.9883 197.818 144.128 254.688 144.908" stroke="black" stroke-width="0.75" stroke-miterlimit="10"/>
<path d="M220 199C215.029 199 211 196.985 211 194.5C211 192.015 215.029 190 220 190C224.971 190 229 192.015 229 194.5C229 196.985 224.971 199 220 199Z" fill="#63251F"/>
<path d="M-6.86646e-05 52.1045C-6.86646e-05 45.2717 3.57401 39.093 9.34393 34.6546C9.1526 33.7521 9.05475 32.8323 9.05193 31.9097C9.05193 22.7993 18.3142 15.3942 29.8424 15.184C33.3464 6.3656 43.7649 0 56.1223 0C65.9569 0 74.5884 4.06464 79.4823 10.1733C80.7172 10.0043 81.9619 9.91849 83.2082 9.91632C94.9583 9.91632 104.489 17.4149 104.489 26.6654C104.49 28.2318 104.213 29.786 103.672 31.2557C111.158 35.1918 116.099 41.8962 116.099 49.5115C116.099 56.8466 111.521 63.329 104.489 67.3118V67.5454C104.489 76.5274 95.519 83.8974 84.2361 84.2712C78.0223 90.3448 68.4914 94.2342 57.8042 94.2342C50.7869 94.2948 43.8763 92.5148 37.7614 89.0717C36.7996 89.1795 35.8326 89.2341 34.8647 89.2352C23.1147 89.2352 13.5838 81.7366 13.5838 72.4861V72.3225C5.36105 67.8841 -6.86646e-05 60.4907 -6.86646e-05 52.1045Z" fill="#067DE1"/>
<path d="M117.024 101.288C117.024 102.818 118.799 104.056 120.983 104.056C123.168 104.056 124.943 102.818 124.943 101.288C124.943 99.7576 123.168 98.5195 120.983 98.5195C118.799 98.5195 117.024 99.7576 117.024 101.288Z" fill="#067DE1"/>
<path d="M89.5933 94.6804C89.5933 99.1072 94.7442 102.693 101.098 102.693C107.452 102.693 112.568 99.1305 112.568 94.6804C112.568 90.2304 107.417 86.668 101.063 86.668C94.7091 86.668 89.5933 90.2888 89.5933 94.6804Z" fill="#067DE1"/>
<path opacity="0.7" d="M-6.86646e-05 52.1045C-6.86646e-05 45.2717 3.57401 39.093 9.34393 34.6546C9.1526 33.7521 9.05475 32.8323 9.05193 31.9097C9.05193 22.7993 18.3142 15.3942 29.8424 15.184C33.3464 6.3656 43.7649 0 56.1223 0C65.9569 0 74.5884 4.06464 79.4823 10.1733C80.7172 10.0043 81.9619 9.91849 83.2082 9.91632C94.9583 9.91632 104.489 17.4149 104.489 26.6654C104.49 28.2318 104.213 29.786 103.672 31.2557C111.158 35.1918 116.099 41.8962 116.099 49.5115C116.099 56.8466 111.521 63.329 104.489 67.3118V67.5454C104.489 76.5274 95.519 83.8974 84.2361 84.2712C78.0223 90.3448 68.4914 94.2342 57.8042 94.2342C50.7869 94.2948 43.8763 92.5148 37.7614 89.0717C36.7996 89.1795 35.8326 89.2341 34.8647 89.2352C23.1147 89.2352 13.5838 81.7366 13.5838 72.4861V72.3225C5.36105 67.8841 -6.86646e-05 60.4907 -6.86646e-05 52.1045Z" fill="white"/>
<path opacity="0.7" d="M117.024 101.288C117.024 102.818 118.799 104.056 120.983 104.056C123.168 104.056 124.943 102.818 124.943 101.288C124.943 99.7576 123.168 98.5195 120.983 98.5195C118.799 98.5195 117.024 99.7576 117.024 101.288Z" fill="white"/>
<path opacity="0.7" d="M89.5933 94.6804C89.5933 99.1072 94.7442 102.693 101.098 102.693C107.452 102.693 112.568 99.1305 112.568 94.6804C112.568 90.2304 107.417 86.668 101.063 86.668C94.7091 86.668 89.5933 90.2888 89.5933 94.6804Z" fill="white"/>
<path d="M58.4939 19C69.8586 19 76.8899 24.3378 76.8899 33.8336C76.8899 46.6816 63.8317 48.3285 63.8317 58.2448H52.5605C52.5605 45.1982 62.9907 44.4274 62.9907 36.2981C62.9907 32.7941 60.7832 31.1238 57.0573 31.1238C52.8992 31.1238 50.6917 33.5766 50.6099 38.6691H39C39.0818 26.2066 46.3701 19 58.4939 19ZM65.2917 71.9921C65.2917 73.9158 64.5275 75.7607 63.1672 77.121C61.807 78.4813 59.9621 79.2454 58.0384 79.2454C56.1147 79.2454 54.2698 78.4813 52.9096 77.121C51.5493 75.7607 50.7851 73.9158 50.7851 71.9921C50.7851 70.0685 51.5493 68.2236 52.9096 66.8633C54.2698 65.5031 56.1147 64.7389 58.0384 64.7389C59.9621 64.7389 61.807 65.5031 63.1672 66.8633C64.5275 68.2236 65.2917 70.0685 65.2917 71.9921Z" fill="white"/>
</svg>

<svg xmlns="http://www.w3.org/2000/svg" fill="none" width="521" height="471" viewBox="0 0 521 471"><path d="M145.384 245.642c-11.303-2.601-18.186-14.614-15.374-26.831 2.811-12.218 14.253-20.013 25.556-17.412 11.302 2.601 18.185 14.614 15.374 26.831-2.812 12.218-14.254 20.013-25.556 17.412Z" fill="#492B25"/><path d="M226.779 229.029s-1 8-2.85 19.35c-3 18.67-28.25 22.4-36.53 5.39-4.5-9.26-8.35-18.15-10.19-24.74 0 0-4.17-7.56-13.3 11.74s-13 174.78-13 174.78-2.11 31.44-2.11 52.6c27.4-.94 107.18-.42 107.24-.42l-9.13-209s-8.39-33.61-20.13-29.7Z" fill="#fff"/><path d="M226.429 231.629c13 1.55 11 29.49 11 35.23 0 5.74 2.35 200.87 2.35 200.87h70.18l30-105.65s-16.7-47.48-28.44-71.22c-11.74-23.74-33.91-30.78-39.39-31.83-5.48-1.05-26-14-31-23.74-5-9.74-14.35-9.65-14.35-9.65l-.35 5.99Z" fill="#2790D6"/><path d="m182.779 421.359 19.56 4.5 47.75-14.48 52.47 33.08s7 8.21-8.21 8.21c0 0 2.93 5.09-5.09 5.09s-10.66-2.64-10.66-2.64-4.6 6.55-17.12 0c0 0-2.74 5.57-13.11 1.27a159.817 159.817 0 0 1-18-8.8s-8.22 14.87-25.83 20.15h-28.37l6.61-46.38Z" fill="#E8AA80"/><path d="M177.998 225.639s-7.83-2.87-12.52 4.17c-4.69 7.04-19.83 18.53-22.44 21.14 0 0-60.52 13.3-66.26 16.43-5.74 3.13-15.39 21.13-18 26.61-2.61 5.48-37.26 57.07-48.26 141.65-4.17 32.09 18 34.88 23.48 34.44 5.48-.44 145.88-2.47 146.89-2.35 2.46-22.83 6.76-56.35 6.76-56.35l-22.17-5.22s3.91-160.43 3.91-164.08c0-3.65 3.13-13 7.82-13l.79-3.44Z" fill="#2790D6"/><path d="M298.259 458.339h-54.65c-2.48 0-7.83 2.61-8.48 9.39h61.65l1.48-9.39Z" fill="#6B6661"/><path d="m333.669 355.028-43.82 112.7h188.8l42.26-112.7h-187.24Z" fill="#9E9B97"/><path d="M402.981 427.888c-4.378-3.068-3.951-11.228.953-18.224s12.429-10.18 16.806-7.111c4.378 3.069 3.951 11.228-.953 18.224s-12.429 10.18-16.806 7.111Z" fill="#B7AEA3"/><path d="M184.259 212.858s-42.78-.52-44.35-51.65c-1.57-51.13 44.35-67.57 44.35-65.22 0 0 10.69 29.74 35.22 39.91l-35.22 76.96Z" fill="#422722"/><path d="M246.609 163.029s23.47-17.48 9.39-49.3c-14.08-31.82-65.74-27.13-71.74-17.74 0 0 11.8 42.32 63.13 49.3l-.78 17.74Z" fill="#492B25"/><path d="M226.429 218.859s16 0 23.31-18.26c7.31-18.26-1.31-55.57-1.31-55.57s-24.26-1.82-42.52-17.48c0 0-13.83 16.73-15.39 48.41 0 0-2.87-19.45-16.7-19.45-13.83 0-16.17 31.83 8.87 26.87 0 0-5.48 42-5.48 45.65 0 0 2.26 9.09 10.26 26.08 8.1 17.21 33.5 13.67 36.67-5.09 1.56-9.18 2.64-17.89 2.64-24.38l-.35-6.78Z" fill="#E8AA80"/><path d="M229.259 166.548s-8.09-7.56-13.83-7.56-12.65 3.13-14.22 4.69c0 0 5.82 9 14 9s14.05-6.13 14.05-6.13Z" fill="#fff"/><mask id="a" width="29" height="15" x="201" y="158" maskUnits="userSpaceOnUse" style="mask-type:alpha"><path d="M229.259 166.548s-8.09-7.56-13.83-7.56-12.65 3.13-14.22 4.69c0 0 5.82 9 14 9s14.05-6.13 14.05-6.13Z" fill="#fff"/></mask><g mask="url(#a)"><path d="M226.429 162.378s-14.52-7.43-17.65 9.39c0 0 5.35 7.31 22.3-4.82 0 0-3.3-4.57-4.65-4.57Z" fill="#281313"/></g><path d="M251.199 160.819a7.36 7.36 0 0 0-1.05 0c-5.72.5-12.33 4.22-13.75 5.92 0 0 6.58 8.45 14.75 7.74.51-.05.87-.09 1.35-.18-.45-7.15-.66-8.15-1.3-13.48Z" fill="#fff"/><mask id="b" width="17" height="15" x="236" y="160" maskUnits="userSpaceOnUse" style="mask-type:alpha"><path d="M251.199 160.819a7.36 7.36 0 0 0-1.05 0c-5.72.5-12.33 4.22-13.75 5.92 0 0 6.58 8.45 14.75 7.74.51-.05.87-.09 1.35-.18-.45-7.15-.66-8.15-1.3-13.48Z" fill="#fff"/></mask><g mask="url(#b)"><path d="M251.428 162.879c-3.21 1.23-8.36 3.64-9 10.59 0 0 4.88 3.36 10.49 2-.33-4.41-.83-6.77-1.49-12.59Z" fill="#281313"/></g><path d="M177.608 172.679a14.63 14.63 0 0 0-6.85-6.84m62.151 6.84s5.09 2.48 6.78 4.18c1.69 1.7-.41 3.33-1.43 3.52-2.48.46-10.79 0-10.79 0" stroke="#512E27" stroke-miterlimit="10" stroke-width=".75"/><path d="M241.549 155.339a13.514 13.514 0 0 0 9.27 2.56m-32.171-12.92a16.827 16.827 0 0 0-12.36 2.28" stroke="#512E27" stroke-miterlimit="10"/><path d="M195.149 201.249s4.85 18.59 31.28 17.61c0 0 .35 4 .35 7.82-10 .2-28.3-5.41-31.63-25.43Z" fill="#7F4E41"/><path d="m124.258 324.769-15.91 73-32.61-4.43s89.47 11.74 111.91 18m91.431-75.88s11.3 21.84-10.39 87.61" stroke="#000" stroke-miterlimit="10" stroke-width=".75"/><path d="m258.239 425.729 36.11 26.93s2 4.1-2.66 4.89m-50.56-31.82s33.11 23.56 35.38 25.82c2.27 2.26 3 3.64-1.72 6m-48.36-29.74s32.31 23.09 34.52 25.31c2.21 2.22-.89 5.1-4.59 4.84-3.89-.27-6.23-.24-32.84-14.1 0 0-5.67 12.11-27.39 13.69" stroke="#512E27" stroke-miterlimit="10" stroke-width=".75"/><path d="M199.009 89.778s11.37 27.54 61.44 41.66m-72.801-27.189s-44.09 21.63-46.57 63.42m57.931-47.141s-50.37 26.72-36.87 85.35" stroke="#000" stroke-miterlimit="10" stroke-width=".75"/><path d="M184.258 95.988s13.56 48.14 70.43 48.92" stroke="#000" stroke-miterlimit="10" stroke-width=".75"/><path d="M220 199c-4.971 0-9-2.015-9-4.5s4.029-4.5 9-4.5 9 2.015 9 4.5-4.029 4.5-9 4.5Z" fill="#63251F"/><path d="M0 52.105c0-6.833 3.574-13.012 9.344-17.45a13.433 13.433 0 0 1-.292-2.745c0-9.11 9.262-16.516 20.79-16.726C33.346 6.366 43.765 0 56.122 0c9.835 0 18.466 4.065 23.36 10.173a27.836 27.836 0 0 1 3.726-.257c11.75 0 21.281 7.499 21.281 16.75a13.265 13.265 0 0 1-.817 4.59c7.486 3.936 12.427 10.64 12.427 18.255 0 7.336-4.578 13.818-11.61 17.8v.234c0 8.982-8.97 16.352-20.253 16.726-6.214 6.074-15.745 9.963-26.432 9.963a40.144 40.144 0 0 1-20.043-5.162c-.961.108-1.928.162-2.896.163-11.75 0-21.281-7.498-21.281-16.749v-.163C5.36 67.883 0 60.49 0 52.105Zm117.024 49.183c0 1.53 1.775 2.768 3.959 2.768 2.185 0 3.96-1.238 3.96-2.768 0-1.53-1.775-2.769-3.96-2.769-2.184 0-3.959 1.239-3.959 2.769Zm-27.43-6.608c0 4.427 5.15 8.013 11.504 8.013 6.354 0 11.47-3.563 11.47-8.013 0-4.45-5.151-8.012-11.505-8.012-6.354 0-11.47 3.62-11.47 8.012Z" fill="#067DE1"/><path d="M0 52.105c0-6.833 3.574-13.012 9.344-17.45a13.433 13.433 0 0 1-.292-2.745c0-9.11 9.262-16.516 20.79-16.726C33.346 6.366 43.765 0 56.122 0c9.835 0 18.466 4.065 23.36 10.173a27.836 27.836 0 0 1 3.726-.257c11.75 0 21.281 7.499 21.281 16.75a13.265 13.265 0 0 1-.817 4.59c7.486 3.936 12.427 10.64 12.427 18.255 0 7.336-4.578 13.818-11.61 17.8v.234c0 8.982-8.97 16.352-20.253 16.726-6.214 6.074-15.745 9.963-26.432 9.963a40.144 40.144 0 0 1-20.043-5.162c-.961.108-1.928.162-2.896.163-11.75 0-21.281-7.498-21.281-16.749v-.163C5.36 67.883 0 60.49 0 52.105Zm117.024 49.183c0 1.53 1.775 2.768 3.959 2.768 2.185 0 3.96-1.238 3.96-2.768 0-1.53-1.775-2.769-3.96-2.769-2.184 0-3.959 1.239-3.959 2.769Zm-27.43-6.608c0 4.427 5.15 8.013 11.504 8.013 6.354 0 11.47-3.563 11.47-8.013 0-4.45-5.151-8.012-11.505-8.012-6.354 0-11.47 3.62-11.47 8.012Z" fill="#fff" opacity=".7"/><path d="M58.494 19c11.365 0 18.396 5.338 18.396 14.834 0 12.848-13.058 14.494-13.058 24.41H52.56c0-13.046 10.43-13.817 10.43-21.946 0-3.504-2.207-5.174-5.933-5.174-4.158 0-6.365 2.453-6.447 7.545H39C39.082 26.207 46.37 19 58.494 19Zm6.798 52.992a7.253 7.253 0 1 1-14.507 0 7.253 7.253 0 0 1 14.507 0Z" fill="#fff"/></svg>
